src/images/partners/system9.svg

<svg xmlns="http://www.w3.org/2000/svg" width="328" height="328" fill="none"><circle cx="164" cy="164" r="164" fill="#fff"/><path fill="#000" d="M164.5 80c8.008 0 14.5-6.716 14.5-15s-6.492-15-14.5-15S150 56.716 150 65s6.492 15 14.5 15M164.5 247c8.008 0 14.5-6.716 14.5-15s-6.492-15-14.5-15-14.5 6.716-14.5 15 6.492 15 14.5 15M236.78 128.425l-11.068-11.106a14.87 14.87 0 0 1-4.427-10.813 15.17 15.17 0 0 0-4.278-10.94 15.1 15.1 0 0 0-4.936-3.378 15.03 15.03 0 0 0-16.648 3.377 15.17 15.17 0 0 0-4.278 10.94 14.9 14.9 0 0 1-1.108 5.863 14.85 14.85 0 0 1-3.319 4.951l-11.068 11.106a15.287 15.287 0 0 1-11.014 4.443 15 15 0 0 0-5.841 1.125 15.1 15.1 0 0 0-4.952 3.304 15.15 15.15 0 0 0-4.414 10.83 15.4 15.4 0 0 1-1.103 5.973 15.3 15.3 0 0 1-3.325 5.076l-11.067 11.105a15.48 15.48 0 0 1-11.1 4.443h-.117a15.43 15.43 0 0 1-11.068-4.443l-11.068-11.105a15.6 15.6 0 0 1-3.323-5.116 15.6 15.6 0 0 1-1.104-6.006v-.124a15.6 15.6 0 0 1 4.427-11.106l11.068-11.105a14.799 14.799 0 0 1 10.777-4.443 15.03 15.03 0 0 0 8.489-2.375 15.1 15.1 0 0 0 5.715-6.731 15.17 15.17 0 0 0 .988-8.786 15.15 15.15 0 0 0-4.076-7.84 15.06 15.06 0 0 0-7.748-4.214 15.03 15.03 0 0 0-8.771.853 15.1 15.1 0 0 0-6.798 5.628 15.17 15.17 0 0 0-2.5 8.479 15.4 15.4 0 0 1-1.105 5.973 15.4 15.4 0 0 1-3.322 5.079L92.23 128.447a14.78 14.78 0 0 1-10.777 4.443 15 15 0 0 0-5.884 1.04 15.1 15.1 0 0 0-5.02 3.252 15.1 15.1 0 0 0-3.365 4.953 15.17 15.17 0 0 0 0 11.752 15.1 15.1 0 0 0 3.366 4.953 15.1 15.1 0 0 0 5.019 3.252 15 15 0 0 0 5.884 1.04 14.78 14.78 0 0 1 10.777 4.443l11.068 11.106a14.87 14.87 0 0 1 4.427 10.813 15.146 15.146 0 0 0 4.277 10.941 15.035 15.035 0 0 0 21.585 0 15.15 15.15 0 0 0 4.277-10.941 14.86 14.86 0 0 1 4.427-10.813l11.068-11.106a15.3 15.3 0 0 1 5.062-3.334 15.3 15.3 0 0 1 5.952-1.109 15 15 0 0 0 5.84-1.125 15.1 15.1 0 0 0 4.952-3.303 15.163 15.163 0 0 0 4.416-10.828 15.4 15.4 0 0 1 1.102-5.974 15.4 15.4 0 0 1 3.325-5.078l11.068-11.105a15.45 15.45 0 0 1 11.084-4.443h.123a15.44 15.44 0 0 1 11.068 4.443l11.068 11.105a15.57 15.57 0 0 1 4.427 11.106v.124a15.6 15.6 0 0 1-1.104 6.006 15.6 15.6 0 0 1-3.323 5.116l-11.068 11.105a14.8 14.8 0 0 1-4.935 3.33 14.8 14.8 0 0 1-5.842 1.113 15.03 15.03 0 0 0-8.489 2.375 15.1 15.1 0 0 0-5.715 6.731 15.17 15.17 0 0 0-.988 8.786 15.14 15.14 0 0 0 4.076 7.84 15.029 15.029 0 0 0 16.519 3.361 15.1 15.1 0 0 0 6.798-5.628 15.17 15.17 0 0 0 2.5-8.479 15.4 15.4 0 0 1 1.105-5.973 15.4 15.4 0 0 1 3.322-5.079l11.068-11.105a14.8 14.8 0 0 1 4.935-3.329 14.8 14.8 0 0 1 5.842-1.114 15 15 0 0 0 5.884-1.04 15.1 15.1 0 0 0 5.019-3.252 15.1 15.1 0 0 0 3.366-4.953 15.18 15.18 0 0 0 0-11.752 15.1 15.1 0 0 0-3.366-4.953 15.1 15.1 0 0 0-5.019-3.252 15 15 0 0 0-5.884-1.04 14.774 14.774 0 0 1-10.767-4.443M94.077 269.17a8.6 8.6 0 0 0-2.188-1.122 26 26 0 0 0-2.772-.802 20 20 0 0 1-2.51-.803 4.9 4.9 0 0 1-1.805-1.166 2.54 2.54 0 0 1-.675-1.822 2.5 2.5 0 0 1 .598-1.691 3.9 3.9 0 0 1 1.668-1.094 7.2 7.2 0 0 1 2.48-.393c.638 0 1.272.088 1.883.261a8.5 8.5 0 0 1 1.746.701c.497.259.947.593 1.331.99.174.134.39.206.613.206a1.25 1.25 0 0 0 .871-.365c.116-.097.209-.216.275-.349s.102-.277.108-.424q0-.554-.611-1.109a6.94 6.94 0 0 0-2.679-1.604 10.6 10.6 0 0 0-3.535-.582 9.45 9.45 0 0 0-3.75.699 6.06 6.06 0 0 0-2.557 1.94 4.73 4.73 0 0 0-.919 2.901c-.021.797.14 1.588.473 2.319.31.644.771 1.212 1.347 1.662a7.9 7.9 0 0 0 2.048 1.137c.841.319 1.706.577 2.587.773.957.22 1.894.513 2.802.875a5.16 5.16 0 0 1 1.898 1.255c.471.538.716 1.223.689 1.924a2.48 2.48 0 0 1-.643 1.691c-.463.509-1.052.9-1.714 1.138a6.7 6.7 0 0 1-2.419.408 8 8 0 0 1-3.138-.584 8.7 8.7 0 0 1-2.587-1.691 1.1 1.1 0 0 0-.349-.235 1.182 1.182 0 0 0-.895.006c-.15.063-.285.156-.394.274a1.154 1.154 0 0 0-.217 1.383c.086.167.206.316.353.439.96.871 2.082 1.563 3.309 2.041q1.714.64 3.98.642a9 9 0 0 0 3.688-.729 6.46 6.46 0 0 0 2.587-1.984c.629-.829.96-1.829.945-2.852q0-1.514-.505-2.551a4.55 4.55 0 0 0-1.417-1.713M121 259.199a1.3 1.3 0 0 1-.088.431 2.2 2.2 0 0 1-.268.461l-6.406 8.837v8.846a1.23 1.23 0 0 1-.34.868 1.113 1.113 0 0 1-.865.357h-.072a1.13 1.13 0 0 1-.865-.357 1.2 1.2 0 0 1-.34-.868v-8.846l-6.399-8.836a2.1 2.1 0 0 1-.269-.461 1.2 1.2 0 0 1-.088-.43 1.05 1.05 0 0 1 .428-.869 1.37 1.37 0 0 1 .834-.33c.194.001.384.051.554.145.169.094.314.23.42.394l5.761 8.045 5.775-8.046a1.18 1.18 0 0 1 .973-.54c.307.013.6.129.834.331a1.03 1.03 0 0 1 .421.868M143.065 269.17a8.6 8.6 0 0 0-2.188-1.122 26 26 0 0 0-2.771-.802 20 20 0 0 1-2.51-.803 4.9 4.9 0 0 1-1.807-1.166 2.55 2.55 0 0 1-.673-1.822 2.52 2.52 0 0 1 .597-1.691 3.9 3.9 0 0 1 1.669-1.094 7.2 7.2 0 0 1 2.479-.393c.641 0 1.277.088 1.891.261a8.4 8.4 0 0 1 1.744.701c.498.259.948.593 1.333.99a1 1 0 0 0 .611.206 1.25 1.25 0 0 0 .873-.365c.115-.097.208-.216.274-.349s.103-.277.109-.424q0-.554-.613-1.109a6.9 6.9 0 0 0-2.678-1.604 10.6 10.6 0 0 0-3.536-.582 9.5 9.5 0 0 0-3.751.699 6.05 6.05 0 0 0-2.555 1.94 4.74 4.74 0 0 0-.933 2.901c-.021.797.14 1.588.473 2.319a4.7 4.7 0 0 0 1.355 1.658 7.8 7.8 0 0 0 2.048 1.138q1.263.479 2.587.773c.956.221 1.893.513 2.801.875a5.16 5.16 0 0 1 1.89 1.255c.471.538.716 1.223.689 1.924a2.48 2.48 0 0 1-.643 1.691c-.463.509-1.052.9-1.714 1.138a6.8 6.8 0 0 1-2.42.408 8 8 0 0 1-3.137-.584 8.7 8.7 0 0 1-2.586-1.691q-.15-.151-.349-.235a1.18 1.18 0 0 0-.895.006 1.1 1.1 0 0 0-.395.274 1.16 1.16 0 0 0-.334.833c0 .192.046.382.137.553.086.167.206.316.353.439a10.7 10.7 0 0 0 3.308 2.041q1.716.64 3.98.642a9 9 0 0 0 3.69-.729 6.45 6.45 0 0 0 2.586-1.984 4.6 4.6 0 0 0 .946-2.852q0-1.514-.505-2.551a4.55 4.55 0 0 0-1.43-1.713M170.728 258.001h-14.453c-.33-.01-.652.1-.902.308a1.05 1.05 0 0 0-.282.372 1 1 0 0 0-.09.453c-.005.158.026.315.09.46.065.145.161.275.282.381.245.219.569.337.902.329h5.906v17.46a1.189 1.189 0 0 0 .374.892c.122.116.268.206.429.265s.331.085.502.078c.177.006.354-.023.519-.084s.315-.156.441-.276a1.163 1.163 0 0 0 .373-.869v-17.46h5.905c.331.009.652-.101.903-.309q.184-.155.283-.371c.064-.143.095-.298.089-.453a1.04 1.04 0 0 0-.091-.459 1.1 1.1 0 0 0-.281-.381 1.32 1.32 0 0 0-.899-.336M193.785 260.333c.314.01.621-.101.859-.308a1.04 1.04 0 0 0 .355-.826 1.14 1.14 0 0 0-.355-.853 1.18 1.18 0 0 0-.859-.346h-10.564c-.324 0-.634.13-.863.362a1.24 1.24 0 0 0-.358.873v18.53c0 .328.129.642.358.873.229.232.539.362.863.362h10.564a1.22 1.22 0 0 0 .859-.329 1.1 1.1 0 0 0 .355-.839 1.13 1.13 0 0 0-.355-.811 1.17 1.17 0 0 0-.859-.359h-9.288v-6.987h7.946c.315.009.622-.101.861-.309a1.05 1.05 0 0 0 .355-.824 1.13 1.13 0 0 0-.355-.87 1.23 1.23 0 0 0-.861-.33h-7.946v-6.986zM223.808 258.005a1.2 1.2 0 0 0-.566.156 1.2 1.2 0 0 0-.428.412l-7.313 11.156-7.22-11.156a1.2 1.2 0 0 0-.483-.419 1.3 1.3 0 0 0-.57-.154 1.2 1.2 0 0 0-.861.358c-.23.231-.362.545-.367.875v18.54c-.007.322.109.633.322.868a1.14 1.14 0 0 0 .818.359 1.1 1.1 0 0 0 .819-.359 1.26 1.26 0 0 0 .322-.868v-15.118l6.195 9.755c.102.164.243.298.41.39a1.25 1.25 0 0 0 1.066 0c.165-.1.31-.233.424-.39l6.167-9.613v14.975a1.3 1.3 0 0 0 .224.686c.138.202.331.358.554.45s.467.116.703.068.453-.165.625-.336a1.2 1.2 0 0 0 .351-.868v-18.54a1.14 1.14 0 0 0-.366-.853 1.3 1.3 0 0 0-.826-.374M257.53 262.762a7.6 7.6 0 0 0-1.352-2.407 6.6 6.6 0 0 0-2.223-1.711 7.05 7.05 0 0 0-3.083-.643 6.74 6.74 0 0 0-3.512.921 7 7 0 0 0-2.455 2.427 6.27 6.27 0 0 0-.905 3.29 6.5 6.5 0 0 0 .507 2.543c.328.785.8 1.508 1.396 2.135a6.6 6.6 0 0 0 2.052 1.476 5.8 5.8 0 0 0 2.485.542 6.2 6.2 0 0 0 2.368-.425 6.4 6.4 0 0 0 1.84-1.125c.135-.117.242-.244.364-.364a9.5 9.5 0 0 1-1.263 2.601 13 13 0 0 1-2.654 2.835 11.2 11.2 0 0 1-3.158 1.806c-.295.078-.56.235-.765.452a1.136 1.136 0 0 0 .107 1.593c.247.191.555.295.873.292q.268-.005.523-.087a11.9 11.9 0 0 0 3.526-1.806 13.4 13.4 0 0 0 2.64-2.618 15 15 0 0 0 1.793-3.04c.443-1 .787-2.038 1.028-3.1.215-.922.328-1.863.338-2.807a8.6 8.6 0 0 0-.47-2.78m-4.263 5.732a4.75 4.75 0 0 1-2.455.614 4.25 4.25 0 0 1-2.3-.614 4.07 4.07 0 0 1-1.504-1.655 4.85 4.85 0 0 1-.521-2.208 4.5 4.5 0 0 1 .582-2.295 4.1 4.1 0 0 1 1.579-1.564 4.55 4.55 0 0 1 2.254-.556 4.7 4.7 0 0 1 2.423.602 4.33 4.33 0 0 1 2.148 3.758 4.56 4.56 0 0 1-.585 2.266 4.37 4.37 0 0 1-1.622 1.659z"/></svg>

<svg width="328" height="328" viewBox="0 0 328 328" fill="none" xmlns="http://www.w3.org/2000/svg">
<circle cx="164" cy="164" r="164" fill="white"/>
<path d="M164.5 80C172.508 80 179 73.2843 179 65C179 56.7157 172.508 50 164.5 50C156.492 50 150 56.7157 150 65C150 73.2843 156.492 80 164.5 80Z" fill="black"/>
<path d="M164.5 247C172.508 247 179 240.284 179 232C179 223.716 172.508 217 164.5 217C156.492 217 150 223.716 150 232C150 240.284 156.492 247 164.5 247Z" fill="black"/>
<path d="M236.78 128.425L225.712 117.319C224.284 115.911 223.155 114.226 222.394 112.368C221.633 110.509 221.256 108.515 221.285 106.506C221.335 104.488 220.983 102.48 220.248 100.602C219.513 98.7227 218.411 97.0103 217.007 95.5653C215.603 94.1204 213.924 92.972 212.071 92.188C210.218 91.4039 208.226 91 206.215 91C204.204 91 202.212 91.4039 200.359 92.188C198.506 92.972 196.827 94.1204 195.423 95.5653C194.018 97.0103 192.917 98.7227 192.182 100.602C191.447 102.48 191.095 104.488 191.145 106.506C191.175 108.515 190.798 110.509 190.037 112.368C189.276 114.227 188.147 115.911 186.718 117.319L175.65 128.425C174.201 129.863 172.48 130.997 170.589 131.76C168.698 132.523 166.674 132.899 164.636 132.868C162.634 132.85 160.649 133.232 158.795 133.993C156.942 134.753 155.259 135.877 153.843 137.297C152.428 138.718 151.308 140.407 150.55 142.266C149.792 144.126 149.411 146.118 149.429 148.127C149.461 150.172 149.086 152.202 148.326 154.1C147.566 155.997 146.436 157.723 145.001 159.176L133.934 170.281C132.469 171.722 130.733 172.857 128.828 173.619C126.922 174.382 124.885 174.757 122.834 174.724H122.717C120.671 174.755 118.639 174.378 116.739 173.616C114.839 172.853 113.109 171.72 111.649 170.281L100.581 159.176C99.1472 157.708 98.0175 155.969 97.2576 154.06C96.4977 152.151 96.1226 150.109 96.154 148.054V147.93C96.1247 145.877 96.5008 143.839 97.2607 141.933C98.0205 140.027 99.1491 138.291 100.581 136.824L111.649 125.719C113.053 124.286 114.732 123.154 116.584 122.39C118.437 121.627 120.424 121.248 122.426 121.276C125.428 121.351 128.384 120.524 130.915 118.901C133.445 117.279 135.435 114.935 136.63 112.17C137.824 109.406 138.168 106.346 137.618 103.384C137.068 100.421 135.648 97.6913 133.542 95.5438C131.435 93.3963 128.737 91.9291 125.794 91.3303C122.851 90.7315 119.797 91.0285 117.023 92.1831C114.249 93.3376 111.882 95.2972 110.225 97.8106C108.569 100.324 107.698 103.277 107.725 106.29C107.756 108.335 107.38 110.365 106.62 112.263C105.86 114.161 104.73 115.887 103.298 117.342L92.2296 128.447C90.8262 129.881 89.1474 131.014 87.295 131.777C85.4426 132.541 83.4551 132.919 81.4526 132.89C79.4418 132.839 77.4413 133.193 75.5688 133.93C73.6963 134.667 71.9898 135.773 70.5498 137.182C69.1097 138.591 67.9653 140.275 67.1839 142.135C66.4026 143.995 66 145.993 66 148.011C66 150.029 66.4026 152.027 67.1839 153.887C67.9653 155.747 69.1097 157.431 70.5498 158.84C71.9898 160.249 73.6963 161.355 75.5688 162.092C77.4413 162.829 79.4418 163.183 81.4526 163.132C83.455 163.104 85.4423 163.482 87.2946 164.246C89.1469 165.009 90.8257 166.142 92.2296 167.575L103.298 178.681C104.726 180.089 105.855 181.774 106.616 183.632C107.376 185.491 107.754 187.485 107.725 189.494C107.674 191.512 108.027 193.52 108.761 195.398C109.496 197.277 110.598 198.99 112.002 200.435C113.407 201.88 115.085 203.028 116.938 203.812C118.792 204.596 120.783 205 122.794 205C124.806 205 126.797 204.596 128.65 203.812C130.504 203.028 132.182 201.88 133.587 200.435C134.991 198.99 136.093 197.277 136.828 195.398C137.562 193.52 137.915 191.512 137.864 189.494C137.834 187.485 138.211 185.491 138.972 183.632C139.733 181.773 140.863 180.089 142.291 178.681L153.359 167.575C154.809 166.137 156.53 165.004 158.421 164.241C160.312 163.478 162.336 163.101 164.373 163.132C166.375 163.15 168.36 162.768 170.213 162.007C172.066 161.247 173.749 160.124 175.165 158.704C176.581 157.284 177.7 155.595 178.458 153.736C179.217 151.877 179.598 149.885 179.581 147.876C179.548 145.831 179.923 143.8 180.683 141.902C181.443 140.004 182.574 138.278 184.008 136.824L195.076 125.719C196.538 124.279 198.271 123.144 200.174 122.382C202.076 121.619 204.111 121.243 206.16 121.276H206.283C208.329 121.245 210.361 121.622 212.26 122.385C214.16 123.147 215.891 124.28 217.351 125.719L228.419 136.824C229.851 138.291 230.979 140.027 231.739 141.933C232.499 143.839 232.875 145.877 232.846 147.93V148.054C232.877 150.109 232.502 152.151 231.742 154.06C230.982 155.969 229.853 157.708 228.419 159.176L217.351 170.281C215.947 171.715 214.269 172.847 212.416 173.611C210.564 174.375 208.576 174.753 206.574 174.724C203.572 174.649 200.616 175.476 198.085 177.099C195.555 178.721 193.565 181.065 192.37 183.83C191.176 186.594 190.832 189.654 191.382 192.616C191.932 195.579 193.352 198.309 195.458 200.456C197.565 202.604 200.263 204.071 203.206 204.67C206.149 205.268 209.203 204.972 211.977 203.817C214.751 202.662 217.118 200.703 218.775 198.189C220.431 195.676 221.302 192.723 221.275 189.71C221.244 187.665 221.62 185.635 222.38 183.737C223.14 181.839 224.27 180.113 225.702 178.658L236.77 167.553C238.174 166.12 239.853 164.987 241.705 164.224C243.558 163.46 245.545 163.081 247.547 163.11C249.558 163.161 251.559 162.807 253.431 162.07C255.304 161.333 257.01 160.227 258.45 158.818C259.89 157.409 261.035 155.725 261.816 153.865C262.597 152.005 263 150.007 263 147.989C263 145.971 262.597 143.973 261.816 142.113C261.035 140.253 259.89 138.569 258.45 137.16C257.01 135.751 255.304 134.645 253.431 133.908C251.559 133.171 249.558 132.817 247.547 132.868C245.547 132.896 243.561 132.517 241.71 131.753C239.859 130.99 238.182 129.858 236.78 128.425Z" fill="black"/>
<path d="M94.0773 269.17C93.4102 268.695 92.6727 268.317 91.8888 268.048C90.9824 267.729 90.0569 267.461 89.1174 267.246C88.2628 267.033 87.4242 266.765 86.6075 266.443C85.9214 266.189 85.3043 265.79 84.8019 265.277C84.3413 264.774 84.1 264.122 84.1275 263.455C84.1099 262.842 84.3215 262.243 84.7247 261.764C85.1699 261.266 85.7455 260.888 86.3932 260.67C87.1874 260.394 88.0281 260.261 88.8732 260.277C89.5107 260.277 90.1447 260.365 90.756 260.538C91.364 260.707 91.9498 260.942 92.5017 261.239C92.999 261.498 93.4487 261.832 93.8331 262.229C94.0066 262.363 94.223 262.435 94.446 262.435C94.6097 262.434 94.7714 262.401 94.9212 262.338C95.0711 262.276 95.2059 262.184 95.3173 262.07C95.4326 261.973 95.5259 261.854 95.5917 261.721C95.6575 261.588 95.6944 261.444 95.7001 261.297C95.7001 260.928 95.4964 260.558 95.0888 260.188C94.3389 259.463 93.4218 258.913 92.4103 258.584C91.2773 258.192 90.0802 257.995 88.8747 258.002C87.5868 257.978 86.3085 258.217 85.1249 258.701C84.103 259.114 83.2189 259.785 82.5677 260.641C81.9471 261.492 81.6255 262.507 81.6491 263.542C81.6278 264.339 81.7891 265.13 82.1218 265.861C82.4326 266.505 82.8933 267.073 83.4689 267.523C84.0863 268 84.7772 268.383 85.5172 268.66C86.3582 268.979 87.223 269.237 88.1043 269.433C89.061 269.653 89.9977 269.946 90.9057 270.308C91.6302 270.584 92.2794 271.013 92.8042 271.563C93.2753 272.101 93.5205 272.786 93.4928 273.487C93.5012 274.106 93.2727 274.707 92.8499 275.178C92.387 275.687 91.7977 276.078 91.1357 276.316C90.3644 276.598 89.5434 276.737 88.7172 276.724C87.6396 276.741 86.5703 276.542 85.5786 276.14C84.6159 275.73 83.7393 275.157 82.9915 274.449C82.8934 274.349 82.7749 274.269 82.6433 274.214C82.5116 274.159 82.3696 274.13 82.2258 274.129C82.0615 274.126 81.8985 274.157 81.748 274.22C81.5975 274.283 81.4633 274.376 81.3545 274.494C81.1269 274.715 80.9997 275.013 81 275.324C80.9993 275.516 81.0463 275.706 81.1371 275.877C81.2228 276.044 81.3428 276.193 81.49 276.316C82.4495 277.187 83.5717 277.879 84.7987 278.357C85.9415 278.784 87.2682 278.998 88.7786 278.999C90.0496 279.018 91.3092 278.769 92.4671 278.27C93.4955 277.833 94.3871 277.149 95.0542 276.286C95.683 275.457 96.0146 274.457 95.9995 273.434C95.9995 272.425 95.8309 271.574 95.4937 270.883C95.176 270.21 94.6896 269.622 94.0773 269.17Z" fill="black"/>
<path d="M121 259.199C120.996 259.347 120.967 259.493 120.912 259.63C120.841 259.794 120.752 259.949 120.644 260.091L114.238 268.928V277.774C114.241 277.934 114.212 278.094 114.154 278.243C114.095 278.392 114.008 278.528 113.898 278.642C113.787 278.761 113.652 278.854 113.503 278.916C113.354 278.977 113.194 279.006 113.033 278.999H112.961C112.8 279.005 112.64 278.977 112.491 278.916C112.342 278.854 112.207 278.761 112.096 278.642C111.986 278.528 111.898 278.392 111.84 278.243C111.782 278.094 111.753 277.934 111.756 277.774V268.928L105.357 260.092C105.249 259.951 105.158 259.796 105.088 259.631C105.033 259.494 105.003 259.348 105 259.201C104.997 259.031 105.034 258.864 105.109 258.713C105.183 258.561 105.293 258.431 105.428 258.332C105.662 258.131 105.956 258.015 106.262 258.002C106.456 258.003 106.646 258.053 106.816 258.147C106.985 258.241 107.13 258.377 107.236 258.541L112.997 266.586L118.772 258.54C118.878 258.375 119.022 258.24 119.192 258.146C119.362 258.051 119.552 258.001 119.745 258C120.052 258.013 120.345 258.129 120.579 258.331C120.713 258.43 120.822 258.561 120.895 258.712C120.968 258.864 121.004 259.031 121 259.199Z" fill="black"/>
<path d="M143.065 269.17C142.398 268.695 141.66 268.317 140.877 268.048C139.97 267.729 139.045 267.461 138.106 267.246C137.251 267.033 136.413 266.765 135.596 266.443C134.91 266.189 134.292 265.79 133.789 265.277C133.33 264.774 133.089 264.122 133.116 263.455C133.099 262.842 133.31 262.243 133.713 261.764C134.158 261.265 134.734 260.888 135.382 260.67C136.176 260.394 137.017 260.261 137.861 260.277C138.502 260.277 139.138 260.365 139.752 260.538C140.36 260.707 140.945 260.942 141.496 261.239C141.994 261.498 142.444 261.832 142.829 262.229C143.002 262.363 143.217 262.435 143.44 262.435C143.604 262.434 143.766 262.401 143.916 262.338C144.066 262.276 144.201 262.184 144.313 262.07C144.428 261.973 144.521 261.854 144.587 261.721C144.653 261.588 144.69 261.444 144.696 261.297C144.696 260.928 144.491 260.558 144.083 260.188C143.333 259.462 142.416 258.913 141.405 258.584C140.272 258.192 139.075 257.995 137.869 258.002C136.581 257.978 135.302 258.217 134.118 258.701C133.097 259.114 132.213 259.785 131.563 260.641C130.938 261.49 130.611 262.506 130.63 263.542C130.609 264.339 130.77 265.13 131.103 265.861C131.416 266.505 131.88 267.072 132.458 267.519C133.075 267.997 133.766 268.381 134.506 268.657C135.347 268.976 136.211 269.234 137.093 269.43C138.049 269.651 138.986 269.943 139.894 270.305C140.615 270.582 141.262 271.011 141.784 271.56C142.255 272.098 142.5 272.783 142.473 273.484C142.481 274.103 142.253 274.704 141.83 275.175C141.367 275.684 140.778 276.075 140.116 276.313C139.344 276.595 138.523 276.733 137.696 276.721C136.619 276.738 135.551 276.539 134.559 276.137C133.597 275.727 132.72 275.154 131.973 274.446C131.874 274.346 131.756 274.266 131.624 274.211C131.493 274.156 131.351 274.127 131.207 274.126C131.042 274.123 130.879 274.154 130.729 274.217C130.578 274.28 130.443 274.373 130.334 274.491C130.114 274.717 129.994 275.015 130 275.324C130 275.516 130.046 275.706 130.137 275.877C130.223 276.044 130.343 276.193 130.49 276.316C131.45 277.187 132.572 277.879 133.798 278.357C134.942 278.784 136.269 278.998 137.778 278.999C139.049 279.018 140.309 278.769 141.468 278.27C142.496 277.833 143.387 277.149 144.054 276.286C144.683 275.456 145.014 274.457 145 273.434C145 272.425 144.832 271.574 144.495 270.883C144.174 270.209 143.682 269.62 143.065 269.17Z" fill="black"/>
<path d="M170.728 258.001H156.275C155.945 257.991 155.623 258.101 155.373 258.309C155.252 258.411 155.155 258.538 155.091 258.681C155.026 258.824 154.995 258.978 155.001 259.134C154.996 259.292 155.027 259.449 155.091 259.594C155.156 259.739 155.252 259.869 155.373 259.975C155.618 260.194 155.942 260.312 156.275 260.304H162.181V277.764C162.177 277.929 162.207 278.094 162.272 278.247C162.336 278.401 162.432 278.54 162.555 278.656C162.677 278.772 162.823 278.862 162.984 278.921C163.144 278.98 163.315 279.006 163.486 278.999C163.663 279.005 163.84 278.976 164.005 278.915C164.17 278.853 164.32 278.759 164.446 278.639C164.566 278.526 164.662 278.391 164.726 278.242C164.79 278.092 164.821 277.932 164.819 277.77V260.31H170.724C171.055 260.319 171.376 260.209 171.627 260.001C171.749 259.899 171.845 259.773 171.91 259.63C171.974 259.487 172.005 259.332 171.999 259.177C172.004 259.019 171.973 258.863 171.908 258.718C171.844 258.573 171.748 258.443 171.627 258.337C171.383 258.117 171.061 257.997 170.728 258.001Z" fill="black"/>
<path d="M193.785 260.333C194.099 260.343 194.406 260.232 194.644 260.025C194.76 259.923 194.853 259.796 194.914 259.653C194.976 259.51 195.005 259.355 194.999 259.199C195.003 259.04 194.973 258.881 194.912 258.734C194.851 258.587 194.759 258.455 194.644 258.346C194.53 258.233 194.396 258.145 194.248 258.086C194.101 258.026 193.943 257.997 193.785 258H183.221C182.897 258 182.587 258.13 182.358 258.362C182.129 258.593 182 258.907 182 259.235V277.765C182 278.093 182.129 278.407 182.358 278.638C182.587 278.87 182.897 279 183.221 279H193.785C194.102 279.007 194.411 278.889 194.644 278.671C194.76 278.566 194.852 278.436 194.914 278.291C194.975 278.146 195.004 277.989 194.999 277.832C194.998 277.679 194.966 277.529 194.905 277.389C194.844 277.25 194.755 277.125 194.644 277.021C194.533 276.905 194.399 276.813 194.251 276.751C194.103 276.689 193.944 276.659 193.785 276.662H184.497V269.675H192.443C192.758 269.684 193.065 269.574 193.304 269.366C193.42 269.264 193.512 269.138 193.574 268.995C193.635 268.852 193.665 268.698 193.659 268.542C193.666 268.38 193.637 268.218 193.576 268.068C193.514 267.918 193.422 267.783 193.304 267.672C193.07 267.454 192.761 267.336 192.443 267.342H184.497V260.356L193.785 260.333Z" fill="black"/>
<path d="M223.808 258.005C223.61 258.008 223.415 258.062 223.242 258.161C223.068 258.26 222.921 258.402 222.814 258.573L215.501 269.729L208.281 258.573C208.16 258.391 207.993 258.246 207.798 258.154C207.621 258.06 207.427 258.007 207.228 258C206.906 257.999 206.597 258.127 206.367 258.358C206.137 258.589 206.005 258.903 206 259.233V277.773C205.993 278.095 206.109 278.406 206.322 278.641C206.428 278.754 206.555 278.845 206.695 278.906C206.836 278.968 206.988 279 207.14 279C207.293 279 207.445 278.968 207.586 278.906C207.726 278.845 207.853 278.754 207.959 278.641C208.172 278.405 208.287 278.094 208.281 277.773V262.655L214.476 272.41C214.578 272.574 214.719 272.708 214.886 272.8C215.053 272.879 215.235 272.92 215.419 272.92C215.603 272.92 215.785 272.879 215.952 272.8C216.117 272.7 216.262 272.567 216.376 272.41L222.543 262.797V277.772C222.552 278.018 222.629 278.256 222.767 278.458C222.905 278.66 223.098 278.816 223.321 278.908C223.544 279 223.788 279.024 224.024 278.976C224.26 278.928 224.477 278.811 224.649 278.64C224.763 278.527 224.852 278.392 224.913 278.243C224.973 278.094 225.003 277.933 225 277.772V259.232C225.003 259.071 224.971 258.911 224.908 258.764C224.845 258.617 224.752 258.486 224.634 258.379C224.41 258.159 224.118 258.026 223.808 258.005Z" fill="black"/>
<path d="M257.53 262.762C257.233 261.889 256.776 261.074 256.178 260.355C255.577 259.637 254.818 259.053 253.955 258.644C252.995 258.201 251.939 257.981 250.872 258.001C249.633 257.983 248.414 258.302 247.36 258.922C246.341 259.522 245.497 260.357 244.905 261.349C244.303 262.35 243.99 263.485 244 264.639C243.995 265.51 244.167 266.373 244.507 267.182C244.835 267.967 245.307 268.69 245.903 269.317C246.48 269.931 247.177 270.433 247.955 270.793C248.728 271.154 249.579 271.339 250.44 271.335C251.251 271.349 252.057 271.204 252.808 270.91C253.485 270.639 254.107 270.258 254.648 269.785C254.783 269.668 254.89 269.541 255.012 269.421C254.729 270.343 254.303 271.22 253.749 272.022C253.017 273.088 252.122 274.043 251.095 274.857C250.155 275.623 249.088 276.233 247.937 276.663C247.642 276.741 247.377 276.898 247.172 277.115C246.976 277.344 246.878 277.636 246.898 277.931C246.918 278.227 247.054 278.504 247.279 278.708C247.526 278.899 247.834 279.003 248.152 279C248.33 278.997 248.506 278.968 248.675 278.913C249.951 278.509 251.144 277.898 252.201 277.107C253.205 276.356 254.093 275.474 254.841 274.489C255.559 273.545 256.161 272.525 256.634 271.449C257.077 270.449 257.421 269.411 257.662 268.349C257.877 267.427 257.99 266.486 258 265.542C257.998 264.597 257.84 263.659 257.53 262.762ZM253.267 268.494C252.526 268.915 251.675 269.128 250.812 269.108C249.999 269.126 249.198 268.912 248.512 268.494C247.859 268.086 247.338 267.513 247.008 266.839C246.661 266.15 246.483 265.395 246.487 264.631C246.472 263.831 246.672 263.041 247.069 262.336C247.435 261.686 247.981 261.145 248.648 260.772C249.333 260.396 250.112 260.204 250.902 260.216C251.753 260.195 252.594 260.403 253.325 260.818C253.989 261.208 254.534 261.758 254.904 262.412C255.283 263.075 255.479 263.82 255.473 264.576C255.479 265.366 255.279 266.145 254.888 266.842C254.514 267.524 253.953 268.097 253.266 268.501L253.267 268.494Z" fill="black"/>
</svg>
